img/viber.svg

<svg width="30" height="30" viewBox="0 0 30 30" fill="none" xmlns="http://www.w3.org/2000/svg">
<g clip-path="url(#clip0)">
<path d="M16.2003 7H12.7999C9.51859 7 6.84912 9.66947 6.84912 12.9508V15.5011C6.84912 17.8048 8.17771 19.8953 10.2496 20.8787V23.7188C10.2496 23.9654 10.558 24.0943 10.7333 23.9192L13.2006 21.4519H16.2003C19.4816 21.4519 22.1511 18.7824 22.1511 15.5011V12.9508C22.1511 9.66947 19.4816 7 16.2003 7Z" fill="#665CAC"/>
<path d="M11.0997 20.8787C9.02781 19.8953 7.69922 17.8047 7.69922 15.5011V12.9507C7.69922 9.66946 10.3687 7 13.65 7H12.7999C9.51859 7 6.84912 9.66947 6.84912 12.9508V15.5011C6.84912 17.8048 8.17771 19.8953 10.2496 20.8787V23.7188C10.2496 23.9654 10.558 24.0943 10.7333 23.9192L11.0997 23.5528V20.8787Z" fill="#523494"/>
<path d="M18.7781 17.5619L18.5233 16.1818C18.5022 16.0678 18.4139 15.9781 18.3002 15.9554L16.2965 15.5546C16.2034 15.5361 16.1075 15.5652 16.0405 15.6321L15.2265 16.4462C13.8549 15.8317 13.0937 15.0688 12.4239 13.6384L13.2353 12.827C13.3023 12.76 13.3314 12.6639 13.3128 12.571L12.9121 10.5672C12.8894 10.4536 12.7997 10.3652 12.6857 10.3441L11.3055 10.0894C11.2677 10.0825 11.2288 10.0832 11.1913 10.0917C10.8269 10.1745 10.4944 10.3581 10.2298 10.6229C9.77148 11.0811 9.59634 11.7498 9.7233 12.5567C9.93643 13.9116 10.6002 15.7971 11.8249 17.0267L11.8417 17.0433C13.0703 18.2672 14.9559 18.931 16.3108 19.1442C16.4815 19.1711 16.6459 19.1844 16.8036 19.1844C17.3911 19.1844 17.8833 18.9991 18.2448 18.6377C18.5094 18.373 18.6931 18.0405 18.7758 17.6762C18.7842 17.6386 18.785 17.5998 18.7781 17.5619Z" fill="white"/>
<path d="M12.9585 13.1038L13.2356 12.8267L13.2359 12.8264L12.9585 13.1038L12.9585 13.1038Z" fill="#E5E5E5"/>
<path d="M16.0405 15.6316L15.7607 15.9114L15.7608 15.9114L16.0406 15.6317L16.0405 15.6316Z" fill="#E5E5E5"/>
<path d="M17.3379 18.6499C17.1803 18.6499 17.0159 18.6365 16.8452 18.6097C15.4903 18.3965 13.6047 17.7326 12.376 16.5088L12.3593 16.4922C11.1346 15.2626 10.4708 13.377 10.2577 12.0222C10.1551 11.3703 10.2499 10.8086 10.5318 10.3752C10.4239 10.4473 10.3226 10.5299 10.2298 10.6227C9.77148 11.0809 9.59634 11.7497 9.7233 12.5565C9.93643 13.9114 10.6002 15.7969 11.8249 17.0266L11.8417 17.0432C13.0703 18.267 14.9559 18.9309 16.3108 19.144C16.4815 19.1709 16.6459 19.1842 16.8036 19.1842C17.3911 19.1842 17.8833 18.9989 18.2448 18.6375C18.3375 18.5447 18.4201 18.4435 18.4921 18.3355C18.1722 18.5436 17.7824 18.6499 17.3379 18.6499Z" fill="#E5E5E5"/>
<path d="M15.0666 11.8174C14.9101 11.8174 14.7832 11.9443 14.7832 12.1007C14.7832 12.2572 14.9101 12.3841 15.0666 12.3841C15.6916 12.3841 16.2 12.8926 16.2 13.5176C16.2 13.672 16.329 13.8009 16.4834 13.8009C16.6378 13.8009 16.7668 13.672 16.7668 13.5176C16.7668 12.5801 16.0041 11.8174 15.0666 11.8174Z" fill="white"/>
<path d="M15.0668 10.6838C14.962 10.6838 14.8562 10.6896 14.7523 10.7011C14.5968 10.7183 14.4846 10.8583 14.5017 11.0139C14.5189 11.1695 14.6592 11.2814 14.8145 11.2645C14.8978 11.2553 14.9826 11.2506 15.0668 11.2506C16.3168 11.2506 17.3337 12.2675 17.3337 13.5175C17.3337 13.6017 17.329 13.6866 17.3198 13.7698C17.3029 13.9233 17.4169 14.0657 17.5704 14.0826C17.7239 14.0995 17.8662 13.9855 17.8832 13.832C17.8947 13.7282 17.9005 13.6224 17.9005 13.5175C17.9005 11.9551 16.6293 10.6838 15.0668 10.6838Z" fill="white"/>
<path d="M15.0673 9.55054C14.966 9.55054 14.8634 9.55439 14.7625 9.56206C14.6064 9.57388 14.4895 9.71001 14.5013 9.86603C14.5131 10.0221 14.6497 10.139 14.8053 10.1272C14.892 10.1206 14.9802 10.1173 15.0673 10.1173C16.9423 10.1173 18.4677 11.6427 18.4677 13.5177C18.4677 13.783 18.4371 14.0471 18.3767 14.3026C18.3421 14.4491 18.4323 14.6013 18.5775 14.641C18.7302 14.6829 18.8919 14.5871 18.9283 14.433C18.9987 14.1348 19.0344 13.8269 19.0344 13.5177C19.0344 11.3302 17.2548 9.55054 15.0673 9.55054Z" fill="white"/>
</g>
<circle cx="15" cy="15" r="14.75" stroke="#665CAC" stroke-width="0.5"/>
<defs>
<clipPath id="clip0">
<rect width="17" height="17" fill="white" transform="translate(6 7)"/>
</clipPath>
</defs>
</svg>

<svg width="30" height="30" viewBox="0 0 30 30" fill="none" xmlns="http://www.w3.org/2000/svg"><g clip-path="url(#clip0)"><path d="M16.2 7h-3.4a5.957 5.957 0 00-5.95 5.95v2.551a5.953 5.953 0 003.4 5.378v2.84c0 .246.308.375.483.2l2.468-2.467h3c3.28 0 5.95-2.67 5.95-5.95V12.95a5.957 5.957 0 00-5.95-5.951z" fill="#665CAC"/><path d="M11.1 20.879A5.953 5.953 0 017.7 15.5v-2.55A5.956 5.956 0 0113.65 7h-.85a5.957 5.957 0 00-5.95 5.95v2.551a5.953 5.953 0 003.4 5.378v2.84c0 .246.308.375.483.2l.367-.366v-2.674z" fill="#523494"/><path d="M18.778 17.562l-.255-1.38a.283.283 0 00-.223-.227l-2.003-.4a.284.284 0 00-.256.077l-.815.814c-1.371-.614-2.132-1.377-2.802-2.808l.811-.811a.283.283 0 00.078-.256l-.4-2.004a.283.283 0 00-.227-.223l-1.38-.255a.285.285 0 00-.115.003 1.977 1.977 0 00-.961.53c-.459.46-.634 1.128-.507 1.935.213 1.355.877 3.24 2.102 4.47l.017.016c1.228 1.224 3.114 1.888 4.469 2.101.17.027.335.04.493.04.587 0 1.08-.185 1.44-.546.265-.265.45-.598.532-.962a.288.288 0 00.002-.114z" fill="#fff"/><path d="M12.959 13.104l.277-.277-.277.277zm3.081 2.528l-.28.28.28-.28zm1.298 3.018a3.18 3.18 0 01-.493-.04c-1.355-.213-3.24-.877-4.469-2.101l-.017-.017c-1.224-1.23-1.888-3.115-2.101-4.47-.103-.652-.008-1.213.274-1.647-.108.072-.21.155-.302.248-.459.458-.634 1.127-.507 1.934.213 1.354.877 3.24 2.102 4.47l.017.016c1.228 1.224 3.114 1.888 4.469 2.101.17.027.335.04.493.04.587 0 1.08-.185 1.44-.547.093-.092.176-.194.248-.302-.32.209-.71.315-1.154.315z" fill="#E5E5E5"/><path d="M15.067 11.817a.283.283 0 000 .567c.625 0 1.133.509 1.133 1.134 0 .154.129.283.283.283a.286.286 0 00.284-.283c0-.938-.763-1.7-1.7-1.7z" fill="#fff"/><path d="M15.067 10.684c-.105 0-.21.006-.315.017a.284.284 0 00.063.563 2.27 2.27 0 012.505 2.505.286.286 0 00.25.314.286.286 0 00.313-.251 2.837 2.837 0 00-2.816-3.148z" fill="#fff"/><path d="M15.067 9.55a4.04 4.04 0 00-.305.012.283.283 0 00.043.565 3.404 3.404 0 013.571 4.175.286.286 0 00.201.339.286.286 0 00.351-.208 3.972 3.972 0 00-3.861-4.882z" fill="#fff"/></g><circle cx="15" cy="15" r="14.75" stroke="#665CAC" stroke-width=".5"/><defs><clipPath id="clip0"><path fill="#fff" transform="translate(6 7)" d="M0 0h17v17H0z"/></clipPath></defs></svg>
